X:486
T:Scattery Island Slide, The
S:Various
Z:Nigel Gatherer
R:slide
M:12/8
L:1/8
K:D
FGA d2d FGA d2d | e2A cBA e2A cBA |
FGA d2d FGA d2d | e2A cBA B2c d3 :|
a3  f2e d3  def | g3  f3  e3  efg |
a3  f2e d3  def | e2A cBA B2c d3 :|
